src/fmpy/gui/icons/light/floppy.svg

<?xml version="1.0" encoding="UTF-8" standalone="no"?><!DOCTYPE svg PUBLIC "-//W3C//DTD SVG 1.1//EN" "http://www.w3.org/Graphics/SVG/1.1/DTD/svg11.dtd"><svg width="100%" height="100%" viewBox="0 0 8 8" version="1.1" xmlns="http://www.w3.org/2000/svg" xmlns:xlink="http://www.w3.org/1999/xlink" xml:space="preserve" xmlns:serif="http://www.serif.com/" style="fill-rule:evenodd;clip-rule:evenodd;stroke-linejoin:round;stroke-miterlimit:2;"><g id="floppy"><rect x="4.14" y="2.04" width="0.6" height="0.9" style="fill:#333;fill-rule:nonzero;"/><path d="M1.89,1.44l3.476,0c0.119,0 0.234,0.048 0.318,0.132l0.424,0.424c0.085,0.085 0.132,0.199 0.132,0.318l0,3.476c0,0.247 -0.203,0.45 -0.45,0.45l-3.9,0c-0.247,0 -0.45,-0.203 -0.45,-0.45l0,-3.9c0,-0.247 0.203,-0.45 0.45,-0.45m-0.15,0.45l0,3.9c0,0.082 0.068,0.15 0.15,0.15l0.15,0l0,-1.35c0,-0.247 0.203,-0.45 0.45,-0.45l2.7,0c0.247,0 0.45,0.203 0.45,0.45l0,1.35l0.15,0c0.082,0 0.15,-0.068 0.15,-0.15l-0,-3.476c-0,-0.039 -0.016,-0.078 -0.044,-0.106l-0.424,-0.424c-0.028,-0.028 -0.067,-0.044 -0.106,-0.044l-0.026,0l-0,1.35c-0,0.247 -0.203,0.45 -0.45,0.45l-2.1,0c-0.247,0 -0.45,-0.203 -0.45,-0.45l-0,-1.35l-0.45,0c-0.082,0 -0.15,0.068 -0.15,0.15m0.9,1.2c-0,0.082 0.068,0.15 0.15,0.15l2.1,0c0.082,0 0.15,-0.068 0.15,-0.15l-0,-1.35l-2.4,0l-0,1.35Zm-0.3,2.85l3,0l-0,-1.35c-0,-0.082 -0.068,-0.15 -0.15,-0.15l-2.7,0c-0.082,0 -0.15,0.068 -0.15,0.15l-0,1.35Z" style="fill:#333;fill-rule:nonzero;"/></g></svg>

<?xml version="1.0" encoding="UTF-8" standalone="no"?>
<!DOCTYPE svg PUBLIC "-//W3C//DTD SVG 1.1//EN" "http://www.w3.org/Graphics/SVG/1.1/DTD/svg11.dtd">
<svg width="100%" height="100%" viewBox="0 0 8 8" version="1.1" xmlns="http://www.w3.org/2000/svg" xmlns:xlink="http://www.w3.org/1999/xlink" xml:space="preserve" xmlns:serif="http://www.serif.com/" style="fill-rule:evenodd;clip-rule:evenodd;stroke-linejoin:round;stroke-miterlimit:2;">
    <g id="floppy" transform="matrix(1,0,0,1,0.16,0.16)">
        <rect x="4.14" y="2.04" width="0.6" height="0.9" style="fill:rgb(51,51,51);"/>
        <path d="M1.89,1.44L5.366,1.44C5.485,1.44 5.6,1.488 5.684,1.572L6.108,1.996C6.193,2.081 6.24,2.195 6.24,2.314L6.24,5.79C6.24,6.037 6.037,6.24 5.79,6.24L1.89,6.24C1.643,6.24 1.44,6.037 1.44,5.79L1.44,1.89C1.44,1.643 1.643,1.44 1.89,1.44M1.74,1.89L1.74,5.79C1.74,5.872 1.808,5.94 1.89,5.94L2.04,5.94L2.04,4.59C2.04,4.343 2.243,4.14 2.49,4.14L5.19,4.14C5.437,4.14 5.64,4.343 5.64,4.59L5.64,5.94L5.79,5.94C5.872,5.94 5.94,5.872 5.94,5.79L5.94,2.314C5.94,2.275 5.924,2.236 5.896,2.208L5.472,1.784C5.444,1.756 5.405,1.74 5.366,1.74L5.34,1.74L5.34,3.09C5.34,3.337 5.137,3.54 4.89,3.54L2.79,3.54C2.543,3.54 2.34,3.337 2.34,3.09L2.34,1.74L1.89,1.74C1.808,1.74 1.74,1.808 1.74,1.89M2.64,3.09C2.64,3.172 2.708,3.24 2.79,3.24L4.89,3.24C4.972,3.24 5.04,3.172 5.04,3.09L5.04,1.74L2.64,1.74L2.64,3.09ZM2.34,5.94L5.34,5.94L5.34,4.59C5.34,4.508 5.272,4.44 5.19,4.44L2.49,4.44C2.408,4.44 2.34,4.508 2.34,4.59L2.34,5.94Z" style="fill:rgb(51,51,51);fill-rule:nonzero;"/>
    </g>
</svg>
